svg/padlock-alt.svg

<svg xmlns="http://www.w3.org/2000/svg" viewBox="0 0 40 64" enable-background="new 0 0 40 64"><style type="text/css">.st0{fill:#333333;}</style><title>padlock-alt</title><desc>Created with Sketch.</desc><path class="st0" d="M34 29.7v-15.7c0-7.7-6.3-14-14-14s-14 6.3-14 14v15.7c-3.7 3.7-6 8.7-6 14.3 0 11 9 20 20 20s20-9 20-20c0-5.6-2.3-10.6-6-14.3zm-24-15.7c0-5.5 4.5-10 10-10s10 4.5 10 10v12.7c-2.9-1.7-6.4-2.7-10-2.7s-7.1 1-10 2.7v-12.7zm10 46c-8.8 0-16-7.2-16-16s7.2-16 16-16 16 7.2 16 16-7.2 16-16 16zM28 42h-2.4c-.6-1.7-2-3.1-3.7-3.7v-2.3c0-1.1-.9-2-2-2s-2 .9-2 2v2.4c-1.7.6-3.1 2-3.7 3.7h-2.2c-1.1 0-2 .9-2 2s.9 2 2 2h2.4c.6 1.7 2 3.1 3.7 3.7v2.2c0 1.1.9 2 2 2s2-.9 2-2v-2.4c1.7-.6 3.1-2 3.7-3.7h2.2c1.1 0 2-.9 2-2 0-1-.9-1.9-2-1.9z"/></svg>

<?xml version="1.0" encoding="utf-8"?>
<!-- Generator: Adobe Illustrator 21.0.0, SVG Export Plug-In . SVG Version: 6.00 Build 0)  -->
<svg version="1.1" id="Layer_1" xmlns="http://www.w3.org/2000/svg" xmlns:xlink="http://www.w3.org/1999/xlink" x="0px" y="0px"
	 viewBox="0 0 40 64" style="enable-background:new 0 0 40 64;" xml:space="preserve">
<style type="text/css">
	.st0{fill:#333333;}
</style>
<title>padlock-alt</title>
<desc>Created with Sketch.</desc>
<g>
	<path class="st0" d="M34,29.7V14c0-7.7-6.3-14-14-14C12.3,0,6,6.3,6,14v15.7C2.3,33.4,0,38.4,0,44c0,11,9,20,20,20s20-9,20-20
		C40,38.4,37.7,33.4,34,29.7z M10,14c0-5.5,4.5-10,10-10c5.5,0,10,4.5,10,10v12.7C27.1,25,23.6,24,20,24s-7.1,1-10,2.7V14z M20,60
		c-8.8,0-16-7.2-16-16s7.2-16,16-16s16,7.2,16,16S28.8,60,20,60z"/>
	<path class="st0" d="M28,42h-2.4c-0.6-1.7-2-3.1-3.7-3.7V36c0-1.1-0.9-2-2-2c-1.1,0-2,0.9-2,2v2.4c-1.7,0.6-3.1,2-3.7,3.7H12
		c-1.1,0-2,0.9-2,2c0,1.1,0.9,2,2,2h2.4c0.6,1.7,2,3.1,3.7,3.7V52c0,1.1,0.9,2,2,2c1.1,0,2-0.9,2-2v-2.4c1.7-0.6,3.1-2,3.7-3.7H28
		c1.1,0,2-0.9,2-2C30,42.9,29.1,42,28,42z"/>
</g>
</svg>
